X:257
T:Pale Rider
C:Emory Lester
N: ("Pale Rider") Transcribed Steve Keating 
L:1/8
Q:1/4=250
M:4/4
K:C
z8 | "Intro""Am"GA AA AA A2 | AA AA AG EC | B,A, A,A, A,A, A,A, | A,4 DE GE | 
|: "First Break""Am"GA AA AB cB | "G"cd gd cB GB | "F"AF CF AB cB | "G"cd gd cB GB | 
"F"AF CF AB cB | "G"cd gd cB GB |1 "Am"Ac ec ec AB | cB AB AG EA :|2 GA AA eA eA | 
ec Ae dc de | AG Ac GA c2 | z2 cd ef ga | "C"bc' ba gd eg | d2 ag ^fg af | "G"gd BG DC B,C | 
D^F GA BG c2 | "F"AF CF A2 AB | cA Bc AB cB | "E"A^F ^GB ef ^gf | e2 {^d}ee e2 EE | 
M:6/8
"F"DEF GAc | "G"EFG ABd | "F"FGA Bde | "G"ged cBG | 
M:4/4
"Am"A2 AA AA AA | AA AA DE DC | B,A, A,A, zE FE | 
M:6/8
"F"DEF GAc | "G"EFG ABd | "F"FGA Bde | "G"ged cBG | 
M:4/4
"Am"A2 AA AA Ae | A2 a3{^d'}e' e'e' | e'd' d'd' d'2 ag | a8 | "Second Break"z2 eg ae ge | 
a2 ae ga ec' | "G"d'c' d'e c'd' ed' | "F"e'd' e'e d'e' d'e' | "G"g'e' d'e' d'e' d'e' | 
"F"g'e' d'e' d'e' d'e' | "G"d'b ad' bc' d'e' | "Dm"d'c' d'd' c'4 | z2 ag ec' ae | 
"Am"ga aa a2 ag | "G"eg e^d =d^d =dc | "F"dc A2 A^G Ae | "G"Ac (3BcB A2 DE | "F"DE DE DE GE | 
"G"GE GE DE FG | "F"AF C2 B4 | c4 d4 | e3d cA BG | A4 ga c'd' | "C"e'd' c'd' zd' (3gc'd' | 
(3e'd'c' (3gc'd' (3e'd'c' (3gac' | "G"d'2 (3gbd' (3f'd'b (3gbd' | (3e'd'b (3gbd' (3e'gb (3gbd' | 
(3"F"f'gb (3gbd' (3e'd'b (3gbd' | (3f'd'b (3gbd' (3e'd'b (3gbd' | "E"e'2 d'2 b2 a2 | 
{g}^g2 eB de z2 | 
M:6/8
"F"a2c'2e'2 | "G"d'2z c'ba | "F"a2z bc'a | "G"b2z gdg | 
M:4/4
{d}"Am"e6 [a2e2] | z2 [a2e2] zc Be | cB A2 zF EF | 
M:6/8
DEF GAc | EFG ABd | FGA Bde | ged cBG | 
M:4/4
A2 a2 {^d'}e'e' e'e' | e'd' a2 aa aa | a4 DE GE | "Am"GA AA AB cB | "G"cd gd cB GB | 
"F"AF CF AB cB | "G"cd gd cB GB | "F"AF CF AB cB | "G"cd gd cB GB | "Am"A2 zc z2 e2 | 
ze d2 zA cB | "F"A2 Ae AB cB | "G"cd gd cB GB | "F"AF CF AB cB | "G"cd gd cB GB | 
"F"AF CF AB cB | "G"cd gd cB GB | "F"A2 Ae Ac ec | ec Ae dc de | cG Ac G4 | z2 g2 ga c'd' | 
"C"e'g eg d'g eg | c'g eg d'g eg | "G"e'g eg d'g eg | c'g eg d'g eg | "F"f'c' ac' e'c' af | 
d'c' af c'4 | b8 | z8 | 
M:6/8
"F"DEF GAc | "G"EFG ABd | "F"FGA Bde | "G"ged cBG | 
M:4/4
"Am"A2 AA A2 Ae | A2 a2 z{^d'}e' e'e' | e'd' d'd' d'a ag | a8 | 
 

